X: 16400
T: Gypsy Dance
R: waltz
M: 3/4
K: Gminor
z DD d2 d|d2 cc2 B|z AB dA2|B G2(^F2 D):|
z D^FA2 ^F|z GAG2 ^F|z GAB G2|A F2 (E2 D):|
z DD d2 d|d2 cc2 B|z ABd A2|1 B G2(^F2 D):|2 c2 B G3||

